images/twitter.svg

<svg fill="none" height="18" viewBox="0 0 22 18" width="22" xmlns="http://www.w3.org/2000/svg"><path d="m19.7386 4.48592c.014.19687.014.39378.014.59064 0 6.00464-4.5368 12.92344-12.82872 12.92344-2.55459 0-4.92767-.7453-6.92388-2.039.362958.0421.711909.0562 1.08883.0562 2.10784 0 4.04823-.7172 5.59774-1.9406-1.98225-.0422-3.64343-1.35-4.21577-3.15.27921.0421.55838.0703.85156.0703.40481 0 .80966-.0563 1.18654-.1547-2.06599-.4219-3.615533-2.25002-3.615533-4.45783v-.05623c.600233.3375 1.298263.54843 2.038063.57653-1.21448-.81565-2.010133-2.20782-2.010133-3.78283 0-.84373.223313-1.61717.614193-2.292174 2.21956 2.756244 5.55589 4.556214 9.29701 4.753124-.0698-.3375-.1117-.68903-.1117-1.0406 0-2.50315 2.0102-4.54219 4.5089-4.54219 1.2982 0 2.4708.548436 3.2944 1.43437 1.019-.19686 1.9962-.576568 2.8617-1.096868-.3351 1.054708-1.047 1.940648-1.9822 2.503108.9073-.09839 1.7868-.35157 2.5964-.70309-.6141.89996-1.3819 1.70149-2.2614 2.3484z" fill="#fff"/></svg>

<svg width="22" height="18" viewBox="0 0 22 18" fill="none" xmlns="http://www.w3.org/2000/svg">
<path d="M19.7386 4.48592C19.7526 4.68279 19.7526 4.8797 19.7526 5.07656C19.7526 11.0812 15.2158 18 6.92388 18C4.36929 18 1.99621 17.2547 0 15.961C0.362958 16.0031 0.711909 16.0172 1.08883 16.0172C3.19667 16.0172 5.13706 15.3 6.68657 14.0766C4.70432 14.0344 3.04314 12.7266 2.4708 10.9266C2.75001 10.9687 3.02918 10.9969 3.32236 10.9969C3.72717 10.9969 4.13202 10.9406 4.5089 10.8422C2.44291 10.4203 0.893367 8.59218 0.893367 6.38437V6.32814C1.4936 6.66564 2.19163 6.87657 2.93143 6.90467C1.71695 6.08902 0.921297 4.69685 0.921297 3.12184C0.921297 2.27811 1.14461 1.50467 1.53549 0.829666C3.75505 3.58591 7.09138 5.38588 10.8325 5.58279C10.7627 5.24529 10.7208 4.89376 10.7208 4.54219C10.7208 2.03904 12.731 0 15.2297 0C16.5279 0 17.7005 0.548436 18.5241 1.43437C19.5431 1.23751 20.5203 0.857802 21.3858 0.337502C21.0507 1.39221 20.3388 2.27815 19.4036 2.84061C20.3109 2.74222 21.1904 2.48904 22 2.13752C21.3859 3.03748 20.6181 3.83901 19.7386 4.48592V4.48592Z" fill="white"/>
</svg>
